!!!SOCIAL_FUNCTION:	songs for success in hunting
!!!PDT:	1956
!!!OTL: No_210_Song_for_Success_in_Hunting_(b).krn
!!!LANG: Non-Tone
!!!LING_GROUP: Muskogean
!!!REG: Florida
**kern
*staff1
=1-
=
*clefF4
*k[f#c#g#d#]
*M6/8
8G#\L
8G#\
8B\J
4G#\
8r
=2
8G#\L
8G#\
8B\J
4G#\
8G#\
=3||
*M5/8
8E\L
8E\
8BB\J
4BB/
=4||
*M3/8
8C#/L
8C#/
8BB/J
=5||
*M4/8
[4E\
8.E\L]
16G#\Jk
=6||
=
*M5/8
8E\L
8E\
8BB\J
4BB/
=7:|!
*M7/8
8E\L
8E\
8BB\J
4BB/
8G#\L
8E\J
=8||
*M2/4
(2G#\
=9
16BB/LL)
16BB/J
8BB/J
8C#/L
8BB/J
==
*-
